X:137
T: GUTN ABEND GUTN ABEND FRAU MUELLERIN
N: Z0136
O: Europa, Mitteleuropa, Deutschland
R: Erzaehlung, lustige Romanze
M: 4/4
L: 1/8
K: G
D2 | G2G2B2B2 | d2d2d2D2 | G6
D2 | G2G2B2B2 | d2ddd2
DD | G2GGB2BB | d2d2d2
DD | G2GGB2DD | G6

@@@ Tune index: 9895
